findly-builder/apps/searchassist/src/assets/images/logos/searchassisst_logo-small.svg

<svg width="25" height="25" viewBox="0 0 25 25" fill="none" xmlns="http://www.w3.org/2000/svg">
<path d="M0 9.63C0 6.26 0 4.57 0.66 3.29C1.22841 2.15143 2.15143 1.22841 3.29 0.66C4.57 0 6.26 0 9.63 0H14.45C17.82 0 19.5 0 20.79 0.66C21.9264 1.23136 22.8486 2.15355 23.42 3.29C24.08 4.57 24.08 6.29 24.08 9.63V22.15C24.1445 22.5742 24.1172 23.0073 24 23.42C23.8828 23.6475 23.6975 23.8328 23.47 23.95C23.0609 24.0839 22.6278 24.1283 22.2 24.08H9.63C6.26 24.08 4.57 24.08 3.29 23.42C2.15355 22.8486 1.23136 21.9264 0.66 20.79C0 19.5 0 17.82 0 14.45V9.63Z" fill="#DC913C"/>
<path d="M17.5402 14.8198C18.5972 13.7132 19.1794 12.237 19.1623 10.7068C19.1453 9.17655 18.5303 7.71371 17.4489 6.63097C16.3674 5.54822 14.9053 4.93147 13.3751 4.91256C11.8449 4.89365 10.368 5.47407 9.26017 6.52976C8.33857 7.43683 7.75024 8.62851 7.59052 9.91171C7.4308 11.1949 7.70905 12.4945 8.38017 13.5998C8.41116 13.6436 8.4278 13.696 8.4278 13.7498C8.4278 13.8035 8.41116 13.8559 8.38017 13.8998L5.38017 16.8998C5.23408 17.0109 5.1122 17.1507 5.02197 17.3106C4.93175 17.4705 4.87507 17.647 4.85542 17.8296C4.83576 18.0121 4.85354 18.1967 4.90766 18.3721C4.96177 18.5475 5.0511 18.71 5.17017 18.8498L5.26017 18.9398C5.40086 19.0671 5.5668 19.1634 5.74719 19.2222C5.92758 19.2811 6.11836 19.3013 6.30708 19.2815C6.49579 19.2617 6.67822 19.2023 6.84244 19.1072C7.00666 19.0122 7.149 18.8835 7.26017 18.7298L10.2602 15.7298C10.3034 15.6973 10.3561 15.6798 10.4102 15.6798C10.4643 15.6798 10.5169 15.6973 10.5602 15.7298C11.659 16.3762 12.9421 16.6377 14.2064 16.4729C15.4706 16.3081 16.6438 15.7264 17.5402 14.8198V14.8198ZM10.3402 13.7398C9.73411 13.1344 9.32122 12.3629 9.15374 11.5228C8.98626 10.6827 9.07171 9.81186 9.39929 9.02036C9.72687 8.22886 10.2819 7.55231 10.994 7.07631C11.7062 6.6003 12.5436 6.34622 13.4002 6.34622C14.2568 6.34622 15.0941 6.6003 15.8063 7.07631C16.5185 7.55231 17.0735 8.22886 17.401 9.02036C17.7286 9.81186 17.8141 10.6827 17.6466 11.5228C17.4791 12.3629 17.0662 13.1344 16.4602 13.7398C15.6483 14.5507 14.5477 15.0062 13.4002 15.0062C12.2527 15.0062 11.1521 14.5507 10.3402 13.7398Z" fill="white"/>
<path d="M10.7199 10.3298C10.6375 10.3276 10.5563 10.3107 10.4799 10.2798C10.4068 10.2493 10.3404 10.2045 10.2847 10.1482C10.229 10.0918 10.185 10.025 10.1552 9.95154C10.1255 9.87809 10.1106 9.79947 10.1114 9.72023C10.1122 9.64098 10.1286 9.56268 10.1599 9.48984C10.5581 8.56196 11.3085 7.83013 12.246 7.45512C13.1835 7.08011 14.2316 7.0926 15.1599 7.48984C15.3071 7.55217 15.4235 7.67042 15.4835 7.81857C15.5435 7.96672 15.5422 8.13265 15.4799 8.27984C15.4176 8.42704 15.2993 8.54345 15.1512 8.60346C15.003 8.66347 14.8371 8.66217 14.6899 8.59984C14.3736 8.46542 14.0338 8.39503 13.6902 8.39274C13.3466 8.39044 13.0059 8.45629 12.6879 8.58648C12.3698 8.71667 12.0808 8.90861 11.8374 9.1512C11.594 9.3938 11.4011 9.68224 11.2699 9.99984C11.2179 10.1005 11.1389 10.1847 11.0418 10.243C10.9446 10.3013 10.8332 10.3313 10.7199 10.3298Z" fill="white"/>
</svg>

<svg width="25" height="25" fill="none" xmlns="http://www.w3.org/2000/svg"><path d="M0 9.63c0-3.37 0-5.06.66-6.34A5.87 5.87 0 0 1 3.29.66C4.57 0 6.26 0 9.63 0h4.82c3.37 0 5.05 0 6.34.66a5.92 5.92 0 0 1 2.63 2.63c.66 1.28.66 3 .66 6.34v12.52c.065.424.037.857-.08 1.27a1.23 1.23 0 0 1-.53.53 3 3 0 0 1-1.27.13H9.63c-3.37 0-5.06 0-6.34-.66a5.92 5.92 0 0 1-2.63-2.63C0 19.5 0 17.82 0 14.45V9.63Z" fill="#DC913C"/><path d="M17.54 14.82a5.86 5.86 0 0 0-8.28-8.29 5.74 5.74 0 0 0-.88 7.07.26.26 0 0 1 0 .3l-3 3a1.349 1.349 0 0 0-.21 1.95l.09.09a1.35 1.35 0 0 0 2-.21l3-3a.25.25 0 0 1 .3 0 5.73 5.73 0 0 0 6.98-.91Zm-7.2-1.08a4.33 4.33 0 1 1 6.12-6.127 4.33 4.33 0 0 1-6.12 6.127Z" fill="#fff"/><path d="M10.72 10.33a.689.689 0 0 1-.24-.05.6.6 0 0 1-.32-.79 3.81 3.81 0 0 1 5-2 .603.603 0 0 1-.47 1.11 2.6 2.6 0 0 0-3.42 1.4.61.61 0 0 1-.55.33Z" fill="#fff"/></svg>
